svg/Filled/home_filled.svg

<svg viewBox="0 0 24 24" xmlns="http://www.w3.org/2000/svg" width="24" height="24"><path d="M11.14 1.07q1-.18 2 .06l.17.05c.81.24 1.52.76 2.27 1.3l.12.09 4.1 2.91.1.07.43.31c.43.32.84.64 1.16 1.05l.14.18q.45.65.67 1.4l.07.25c.13.59.12 1.2.12 1.83v7.15l-.02.48-.02.45c-.05.59-.16 1.2-.47 1.8q-.6 1.17-1.71 1.86l-.32.18q-.68.33-1.36.41l-.45.05-.37.02-.39.02h-.33q-.15-.01-.36-.07l-.14-.06a1.3 1.3 0 0 1-.53-.48l-.06-.1q-.13-.29-.13-.5l-.01-.33v-7.33a2.1 2.1 0 0 0-2.1-2.1h-3.43a2.1 2.1 0 0 0-2.1 2.1v7.67q-.01.15-.08.36l-.06.14q-.17.33-.5.52l-.08.05q-.3.14-.5.12h-.74l-.37-.03a5 5 0 0 1-1.58-.35l-.23-.11a4.7 4.7 0 0 1-2.03-2.04q-.33-.67-.41-1.36l-.06-.44q-.03-.43-.03-.93l-.01-1.08v-6.07c0-.72 0-1.42.19-2.09l.07-.2q.26-.75.74-1.37l.17-.2c.4-.44.9-.8 1.42-1.16l.06-.04.04-.03 4.1-2.91.13-.1.59-.41c.58-.4 1.18-.76 1.84-.93z"/></svg>

<svg viewBox="0 0 24 24" xmlns="http://www.w3.org/2000/svg" width="24" height="24"><path d="M11.14 1.07Q12.14 .89 13.14 1.13L13.31 1.18C14.12 1.42 14.83 1.94 15.58 2.48L20.33 5.86C20.76 6.18 21.17 6.5 21.49 6.91L21.63 7.09Q22.08 7.74 22.3 8.49L22.37 8.74C22.5 9.33 22.49 9.94 22.49 10.57L22.45 18.65C22.4 19.24 22.29 19.85 21.98 20.45Q21.38 21.62 20.27 22.31L19.95 22.49Q19.27 22.82 18.59 22.9L17.05 22.99Q16.9 22.98 16.69 22.92L16.55 22.86A1.3 1.3 0 0 1 16.02 22.38L15.96 22.28Q15.83 21.99 15.83 21.78L15.82 14.12A2.1 2.1 0 0 0 13.72 12.02L10.29 12.02A2.1 2.1 0 0 0 8.19 14.12L8.19 21.79Q8.18 21.94 8.11 22.15L8.05 22.29Q7.88 22.62 7.55 22.81L7.47 22.86Q7.17 23 6.97 22.98L5.86 22.95A5 5 0 0 1 4.28 22.6L4.05 22.49A4.7 4.7 0 0 1 2.02 20.45Q1.69 19.78 1.61 19.09L1.55 18.65Q1.52 18.22 1.52 17.72L1.51 10.57C1.51 9.85 1.51 9.15 1.7 8.48L1.77 8.28Q2.03 7.53 2.51 6.91L2.68 6.71C3.08 6.27 3.58 5.91 4.1 5.55L9.02 2.06C9.6 1.66 10.2 1.3 10.86 1.13Z"/></svg>
